public/images/2022-logo.svg

<svg fill="none" height="72" viewBox="0 0 306 72" width="306" xmlns="http://www.w3.org/2000/svg"><path d="m53.5502 59.0662 11.4941 11.8088 11.5048-11.8088z" fill="#3a7dff"/><path d="m65.0441 47.2462-11.4941-11.8089-11.5048 11.8089z" fill="#fcc300"/><path d="m42.054 47.2423 11.4982-11.8132-11.4982-11.8132-11.4983 11.8132z" fill="#cb9ef8"/><path d="m16.261 50.1187 16.2611-16.7062h-32.5221z" fill="#39a453"/><path d="m32.5221 0-32.5221 33.4125h32.5221z" fill="#3a7dff"/><path d="m65.0443 0-32.5222 33.4125v-33.4125z" fill="#fcc300"/><path d="m42.0452 47.2463 11.5048 11.8198h22.9989l-11.5048-11.8198z" fill="#f77"/><path d="m98.2968 56.9624c6.2082-4.864 11.2962-9.056 15.2642-12.576s7.296-7.136 9.984-10.848c2.688-3.776 4.032-7.36 4.032-10.752 0-2.048-.48-3.648-1.44-4.8-.896-1.152-2.24-1.728-4.032-1.728-1.856 0-3.296.8-4.32 2.4-1.024 1.536-1.504 3.808-1.44 6.816h-18.2402c.192-5.696 1.44-10.4 3.7442-14.112 2.304-3.77598 5.312-6.52798 9.024-8.25598 3.712-1.792 7.84-2.688001 12.384-2.688001 7.872 0 13.728 1.952001 17.568 5.856001 3.84 3.90398 5.76 8.95998 5.76 15.16798 0 6.656-2.24 12.896-6.72 18.72-4.416 5.824-9.952 11.04-16.608 15.648h24v15.264h-48.9602zm50.4322-21.024c0-11.008 2.24-19.68 6.72-26.01598 4.48-6.336 11.52-9.504001 21.12-9.504001s16.64 3.168001 21.12 9.504001c4.544 6.33598 6.816 15.00798 6.816 26.01598 0 11.136-2.24 19.872-6.72 26.208s-11.552 9.504-21.216 9.504-16.736-3.168-21.216-9.504c-4.416-6.336-6.624-15.072-6.624-26.208zm37.152 0c0-5.76-.608-10.144-1.824-13.152-1.216-3.072-3.712-4.608-7.488-4.608s-6.272 1.536-7.488 4.608c-1.216 3.008-1.824 7.392-1.824 13.152 0 5.888.576 10.368 1.728 13.44 1.216 3.008 3.744 4.512 7.584 4.512s6.336-1.504 7.488-4.512c1.216-3.072 1.824-7.552 1.824-13.44zm20.566 21.024c6.208-4.864 11.296-9.056 15.264-12.576s7.296-7.136 9.984-10.848c2.688-3.776 4.032-7.36 4.032-10.752 0-2.048-.48-3.648-1.44-4.8-.896-1.152-2.24-1.728-4.032-1.728-1.856 0-3.296.8-4.32 2.4-1.024 1.536-1.504 3.808-1.44 6.816h-18.24c.192-5.696 1.44-10.4 3.744-14.112 2.304-3.77598 5.312-6.52798 9.024-8.25598 3.712-1.792 7.84-2.688001 12.384-2.688001 7.872 0 13.728 1.952001 17.568 5.856001 3.84 3.90398 5.76 8.95998 5.76 15.16798 0 6.656-2.24 12.896-6.72 18.72-4.416 5.824-9.952 11.04-16.608 15.648h24v15.264h-48.96zm47.936 0c6.208-4.864 11.296-9.056 15.264-12.576s7.296-7.136 9.984-10.848c2.688-3.776 4.032-7.36 4.032-10.752 0-2.048-.48-3.648-1.44-4.8-.896-1.152-2.24-1.728-4.032-1.728-1.856 0-3.296.8-4.32 2.4-1.024 1.536-1.504 3.808-1.44 6.816h-18.24c.192-5.696 1.44-10.4 3.744-14.112 2.304-3.77598 5.312-6.52798 9.024-8.25598 3.712-1.792 7.84-2.688001 12.384-2.688001 7.872 0 13.728 1.952001 17.568 5.856001 3.84 3.90398 5.76 8.95998 5.76 15.16798 0 6.656-2.24 12.896-6.72 18.72-4.416 5.824-9.952 11.04-16.608 15.648h24v15.264h-48.96z" fill="#1f252a"/></svg>

<svg width="306" height="72" viewBox="0 0 306 72" fill="none" xmlns="http://www.w3.org/2000/svg">
<path d="M53.5502 59.0662L65.0443 70.875L76.5491 59.0662H53.5502Z" fill="#3A7DFF"/>
<path d="M65.0441 47.2462L53.55 35.4373L42.0452 47.2462H65.0441Z" fill="#FCC300"/>
<path d="M42.054 47.2423L53.5522 35.4291L42.054 23.6159L30.5557 35.4291L42.054 47.2423Z" fill="#CB9EF8"/>
<path d="M16.261 50.1187L32.5221 33.4125H0L16.261 50.1187Z" fill="#39A453"/>
<path d="M32.5221 0L0 33.4125H32.5221V0Z" fill="#3A7DFF"/>
<path d="M65.0443 0L32.5221 33.4125V0H65.0443Z" fill="#FCC300"/>
<path d="M42.0452 47.2463L53.55 59.0661H76.5489L65.0441 47.2463H42.0452Z" fill="#FF7777"/>
<path d="M98.2968 56.9624C104.505 52.0984 109.593 47.9064 113.561 44.3864C117.529 40.8664 120.857 37.2504 123.545 33.5384C126.233 29.7624 127.577 26.1784 127.577 22.7864C127.577 20.7384 127.097 19.1384 126.137 17.9864C125.241 16.8344 123.897 16.2584 122.105 16.2584C120.249 16.2584 118.809 17.0584 117.785 18.6584C116.761 20.1944 116.281 22.4664 116.345 25.4744H98.1048C98.2968 19.7784 99.5448 15.0744 101.849 11.3624C104.153 7.58642 107.161 4.83442 110.873 3.10642C114.585 1.31442 118.713 0.418419 123.257 0.418419C131.129 0.418419 136.985 2.37042 140.825 6.27442C144.665 10.1784 146.585 15.2344 146.585 21.4424C146.585 28.0984 144.345 34.3384 139.865 40.1624C135.449 45.9864 129.913 51.2024 123.257 55.8104H147.257V71.0744H98.2968V56.9624ZM148.729 35.9384C148.729 24.9304 150.969 16.2584 155.449 9.92242C159.929 3.58642 166.969 0.418419 176.569 0.418419C186.169 0.418419 193.209 3.58642 197.689 9.92242C202.233 16.2584 204.505 24.9304 204.505 35.9384C204.505 47.0744 202.265 55.8104 197.785 62.1464C193.305 68.4824 186.233 71.6504 176.569 71.6504C166.905 71.6504 159.833 68.4824 155.353 62.1464C150.937 55.8104 148.729 47.0744 148.729 35.9384ZM185.881 35.9384C185.881 30.1784 185.273 25.7944 184.057 22.7864C182.841 19.7144 180.345 18.1784 176.569 18.1784C172.793 18.1784 170.297 19.7144 169.081 22.7864C167.865 25.7944 167.257 30.1784 167.257 35.9384C167.257 41.8264 167.833 46.3064 168.985 49.3784C170.201 52.3864 172.729 53.8904 176.569 53.8904C180.409 53.8904 182.905 52.3864 184.057 49.3784C185.273 46.3064 185.881 41.8264 185.881 35.9384ZM206.447 56.9624C212.655 52.0984 217.743 47.9064 221.711 44.3864C225.679 40.8664 229.007 37.2504 231.695 33.5384C234.383 29.7624 235.727 26.1784 235.727 22.7864C235.727 20.7384 235.247 19.1384 234.287 17.9864C233.391 16.8344 232.047 16.2584 230.255 16.2584C228.399 16.2584 226.959 17.0584 225.935 18.6584C224.911 20.1944 224.431 22.4664 224.495 25.4744H206.255C206.447 19.7784 207.695 15.0744 209.999 11.3624C212.303 7.58642 215.311 4.83442 219.023 3.10642C222.735 1.31442 226.863 0.418419 231.407 0.418419C239.279 0.418419 245.135 2.37042 248.975 6.27442C252.815 10.1784 254.735 15.2344 254.735 21.4424C254.735 28.0984 252.495 34.3384 248.015 40.1624C243.599 45.9864 238.063 51.2024 231.407 55.8104H255.407V71.0744H206.447V56.9624ZM254.383 56.9624C260.591 52.0984 265.679 47.9064 269.647 44.3864C273.615 40.8664 276.943 37.2504 279.631 33.5384C282.319 29.7624 283.663 26.1784 283.663 22.7864C283.663 20.7384 283.183 19.1384 282.223 17.9864C281.327 16.8344 279.983 16.2584 278.191 16.2584C276.335 16.2584 274.895 17.0584 273.871 18.6584C272.847 20.1944 272.367 22.4664 272.431 25.4744H254.191C254.383 19.7784 255.631 15.0744 257.935 11.3624C260.239 7.58642 263.247 4.83442 266.959 3.10642C270.671 1.31442 274.799 0.418419 279.343 0.418419C287.215 0.418419 293.071 2.37042 296.911 6.27442C300.751 10.1784 302.671 15.2344 302.671 21.4424C302.671 28.0984 300.431 34.3384 295.951 40.1624C291.535 45.9864 285.999 51.2024 279.343 55.8104H303.343V71.0744H254.383V56.9624Z" fill="#1F252A"/>
</svg>
